apps/common/main/resources/img/toolbar/2.5x/btn-equation.svg

<svg width="20" height="20" viewBox="0 0 20 20" fill="none" xmlns="http://www.w3.org/2000/svg">
<path d="M4.60728 13.6108L6.3042 4H18V5H7.15035L5.03856 17.0828L4.04966 17.0648L3.37921 11.9286H2V10.9286H4.25716L4.60728 13.6108Z" fill="black"/>
<path d="M12.3516 9.74225C12.2214 9.47142 12.0286 9.20059 11.7734 8.92975L9.6875 9.29694V9.57819C9.84375 9.56777 9.98177 9.56257 10.1016 9.56257C10.4766 9.56257 10.7604 9.63288 10.9531 9.7735C11.1458 9.91413 11.3021 10.1537 11.4219 10.4923C11.4479 10.5652 11.6224 11.2344 11.9453 12.5001C11.8151 12.7917 11.5391 13.2657 11.1172 13.9219C10.6953 14.5782 10.362 15.0053 10.1172 15.2032C10.0182 15.2865 9.9375 15.3282 9.875 15.3282C9.80208 15.3282 9.69792 15.2683 9.5625 15.1485C9.375 14.9818 9.19792 14.8985 9.03125 14.8985C8.86458 14.8985 8.72396 14.9558 8.60938 15.0704C8.49479 15.185 8.4375 15.3282 8.4375 15.5001C8.4375 15.6928 8.5 15.8464 8.625 15.961C8.79688 16.112 8.98698 16.1876 9.19531 16.1876C9.49219 16.1876 9.79948 16.0574 10.1172 15.7969C10.6068 15.3907 11.2578 14.4818 12.0703 13.0704C12.4141 14.6173 12.6406 15.4923 12.75 15.6954C12.9219 16.0235 13.1536 16.1876 13.4453 16.1876C13.6432 16.1876 13.8854 16.073 14.1719 15.8438C14.6771 15.4376 15.0938 14.9271 15.4219 14.3126L15.1484 14.1719C14.9453 14.5574 14.7005 14.8699 14.4141 15.1094C14.2682 15.2292 14.1406 15.2891 14.0312 15.2891C13.9635 15.2891 13.8958 15.2501 13.8281 15.1719C13.7604 15.0886 13.6771 14.8412 13.5781 14.4298L12.9375 11.7423C13.3854 10.9662 13.7708 10.4428 14.0938 10.1719C14.2656 10.0261 14.4141 9.95319 14.5391 9.95319C14.6224 9.95319 14.7865 9.99486 15.0312 10.0782C15.1562 10.1251 15.2734 10.1485 15.3828 10.1485C15.5703 10.1485 15.737 10.0834 15.8828 9.95319C15.9609 9.88027 16 9.74486 16 9.54694C16 9.37507 15.9323 9.22923 15.7969 9.10944C15.6667 8.98965 15.4896 8.92975 15.2656 8.92975C15.1146 8.92975 14.9766 8.9558 14.8516 9.00788C14.6536 9.09121 14.4245 9.24746 14.1641 9.47663C13.9036 9.70059 13.6823 9.93757 13.5 10.1876L12.8125 11.2188C12.599 10.4219 12.4453 9.92975 12.3516 9.74225Z" fill="black"/>
</svg>

<svg xmlns="http://www.w3.org/2000/svg" width="20" height="20" fill="none"><path fill="#000" d="M4.607 13.61 6.304 4H18v1H7.15L5.04 17.083l-.99-.018-.67-5.136H2v-1h2.257l.35 2.682Z"/><path fill="#000" d="M12.352 9.742a3.265 3.265 0 0 0-.579-.812l-2.085.367v.281c.156-.01.294-.015.414-.015.375 0 .658.07.851.21.193.141.35.38.469.72.026.072.2.741.523 2.007-.13.292-.406.766-.828 1.422-.422.656-.755 1.083-1 1.281-.099.084-.18.125-.242.125-.073 0-.177-.06-.313-.18-.187-.166-.364-.25-.53-.25a.573.573 0 0 0-.423.172.583.583 0 0 0-.171.43c0 .193.062.346.187.461a.845.845 0 0 0 .57.227c.297 0 .604-.13.922-.391.49-.406 1.14-1.315 1.953-2.727.344 1.547.57 2.422.68 2.625.172.328.404.493.695.493.198 0 .44-.115.727-.344a4.892 4.892 0 0 0 1.25-1.531l-.274-.141a3.062 3.062 0 0 1-.734.937c-.146.12-.273.18-.383.18-.068 0-.135-.039-.203-.117-.068-.083-.15-.33-.25-.742l-.64-2.688c.447-.776.833-1.3 1.156-1.57.172-.146.32-.219.445-.219.083 0 .248.042.492.125a1 1 0 0 0 .352.07.73.73 0 0 0 .5-.195c.078-.073.117-.208.117-.406a.563.563 0 0 0-.203-.438c-.13-.12-.307-.18-.531-.18-.151 0-.29.027-.414.079-.198.083-.428.24-.688.469-.26.224-.482.46-.664.71l-.688 1.032c-.213-.797-.367-1.29-.46-1.477Z"/></svg>
